source/img/tablet-features-image3.svg

<svg width="80" height="80" viewBox="0 0 80 80" fill="none" xmlns="http://www.w3.org/2000/svg">
<rect width="80" height="80" fill="#68B738"/>
<path fill-rule="evenodd" clip-rule="evenodd" d="M46.6173 25.0761C46.991 24.9214 47.4211 25.0069 47.7071 25.2929C48.6156 26.2014 49.8038 28.1706 50.7659 31.2108C51.7373 34.2804 52.5 38.5081 52.5 44C52.5 44.5523 52.0523 45 51.5 45H48V54C48 54.5523 47.5523 55 47 55C46.4477 55 46 54.5523 46 54V26C46 25.5956 46.2436 25.2309 46.6173 25.0761ZM48 43H50.4912C50.4053 38.1836 49.7051 34.4875 48.8591 31.8142C48.5807 30.9346 48.2885 30.1715 48 29.519V43Z" fill="white"/>
<path fill-rule="evenodd" clip-rule="evenodd" d="M34 25C34.5523 25 35 25.4477 35 26V54C35 54.5523 34.5523 55 34 55C33.4477 55 33 54.5523 33 54V26C33 25.4477 33.4477 25 34 25Z" fill="white"/>
<path fill-rule="evenodd" clip-rule="evenodd" d="M29.5 25C30.0523 25 30.5 25.4477 30.5 26V31.5C30.5 32.0569 30.692 32.8152 31.2009 33.4166C31.68 33.9828 32.5145 34.5 33.9999 34.5C34.5522 34.5 34.9999 34.9477 34.9999 35.5C34.9999 36.0523 34.5522 36.5 33.9999 36.5C31.9855 36.5 30.57 35.7672 29.6741 34.7084C28.808 33.6848 28.5 32.4431 28.5 31.5V26C28.5 25.4477 28.9477 25 29.5 25Z" fill="white"/>
<path fill-rule="evenodd" clip-rule="evenodd" d="M38.5 25C37.9477 25 37.5 25.4477 37.5 26V31.5C37.5 32.0569 37.308 32.8152 36.7991 33.4166C36.32 33.9828 35.4854 34.5 33.9999 34.5C33.4476 34.5 33.0001 34.9477 33.0001 35.5C33.0001 36.0523 33.4476 36.5 33.9999 36.5C36.0144 36.5 37.43 35.7672 38.3259 34.7084C39.192 33.6848 39.5 32.4431 39.5 31.5V26C39.5 25.4477 39.0523 25 38.5 25Z" fill="white"/>
</svg>

<svg width="80" height="80" fill="none" xmlns="http://www.w3.org/2000/svg"><path fill="#68B738" d="M0 0h80v80H0z"/><path fill-rule="evenodd" clip-rule="evenodd" d="M46.62 25.08a1 1 0 011.09.21c.9.91 2.1 2.88 3.06 5.92A42.6 42.6 0 0152.5 44a1 1 0 01-1 1H48v9a1 1 0 11-2 0V26a1 1 0 01.62-.92zM48 43h2.5a39.62 39.62 0 00-1.64-11.19 22.4 22.4 0 00-.86-2.3V43zM34 25a1 1 0 011 1v28a1 1 0 11-2 0V26a1 1 0 011-1z" fill="#fff"/><path fill-rule="evenodd" clip-rule="evenodd" d="M29.5 25a1 1 0 011 1v5.5c0 .56.2 1.32.7 1.92.48.56 1.31 1.08 2.8 1.08a1 1 0 110 2 5.41 5.41 0 01-4.33-1.8 5.07 5.07 0 01-1.17-3.2V26a1 1 0 011-1z" fill="#fff"/><path fill-rule="evenodd" clip-rule="evenodd" d="M38.5 25a1 1 0 00-1 1v5.5c0 .56-.2 1.32-.7 1.92-.48.56-1.31 1.08-2.8 1.08a1 1 0 000 2c2.01 0 3.43-.73 4.33-1.8a5.07 5.07 0 001.17-3.2V26a1 1 0 00-1-1z" fill="#fff"/></svg>
